src/pos-icons/nfc-variant.svg

<svg height="24" viewBox="0 0 24 24" width="24" xmlns="http://www.w3.org/2000/svg"><path d="m18 6h-5a2 2 0 0 0 -2 2v2.28c-.59.34-1 .98-1 1.72a2 2 0 0 0 2 2c1.11 0 2-.9 2-2 0-.74-.4-1.38-1-1.72v-2.28h3v8h-8v-8h2v-2h-2-2v12h12m2 2h-16v-16h16m0-2h-16a2 2 0 0 0 -2 2v16a2 2 0 0 0 2 2h16c1.11 0 2-.9 2-2v-16c0-1.11-.89-2-2-2z"/></svg>

<?xml version="1.0" encoding="UTF-8"?><!DOCTYPE svg PUBLIC "-//W3C//DTD SVG 1.1//EN" "http://www.w3.org/Graphics/SVG/1.1/DTD/svg11.dtd"><svg xmlns="http://www.w3.org/2000/svg" xmlns:xlink="http://www.w3.org/1999/xlink" version="1.1" id="mdi-nfc-variant" width="24" height="24" viewBox="0 0 24 24"><path d="M18,6H13A2,2 0 0,0 11,8V10.28C10.41,10.62 10,11.26 10,12A2,2 0 0,0 12,14C13.11,14 14,13.1 14,12C14,11.26 13.6,10.62 13,10.28V8H16V16H8V8H10V6H8L6,6V18H18M20,20H4V4H20M20,2H4A2,2 0 0,0 2,4V20A2,2 0 0,0 4,22H20C21.11,22 22,21.1 22,20V4C22,2.89 21.11,2 20,2Z" /></svg>
